assets/img/braze_icons/brush-01.svg

<svg fill="none" height="24" viewBox="0 0 24 24" width="24" xmlns="http://www.w3.org/2000/svg"><g fill="#801ed7"><path d="m17.264 2.20765c1.2634-1.16985 3.2255-1.13213 4.443.08542 1.2176 1.21754 1.2553 3.17961.0854 4.44305l-6.3905 6.90188c-.3939.4254-.5909.6381-.8229.7205-.2039.0724-.4259.0767-.6325.0122-.235-.0734-.44-.2784-.85-.6884l-2.7787-2.7787c-.41-.41-.615-.615-.68837-.85-.0645-.20661-.06023-.42856.01217-.63253.08235-.23201.29507-.42897.7205-.8229z"/><path d="m8.76212 12.1763c-.41047-.4104-.61571-.6157-.86082-.6875-.1976-.058-.46272-.0452-.65383.0315-.23706.0951-.38521.275-.68152.6348-.09768.1186-.18731.2429-.26529.3749-.27065.4583-.40986.9713-.41661 1.4863-1.27605-.1086-2.5896.3253-3.56606 1.3017-1.03117 1.0312-.97328 2.4822-.93382 3.4713l.00504.1261c.0446 1.1116.07754 1.9326-.27912 2.6285-.158899.31-.145014.6803.03664.9776.18166.2972.50492.4785.85327.4785.27235 0 .58299.0081.91511.0167.75144.0195 1.61294.0419 2.38913-.0199 1.14452-.0911 2.43756-.3747 3.37771-1.3148.97643-.9764 1.41035-2.2899 1.30171-3.5659.51504-.0068 1.02814-.146 1.48644-.4167.132-.0779.2563-.1676.3749-.2653.3598-.2963.5397-.4444.6348-.6815.0767-.1911.0895-.4562.0315-.6538-.0718-.2451-.2771-.4504-.6875-.8608z"/></g></svg>

<svg width="24" height="24" viewBox="0 0 24 24" fill="none" xmlns="http://www.w3.org/2000/svg">
<path d="M17.264 2.20765C18.5274 1.0378 20.4895 1.07552 21.707 2.29307C22.9246 3.51061 22.9623 5.47268 21.7924 6.73612L15.4019 13.638C15.008 14.0634 14.811 14.2761 14.579 14.3585C14.3751 14.4309 14.1531 14.4352 13.9465 14.3707C13.7115 14.2973 13.5065 14.0923 13.0965 13.6823L10.3178 10.9036C9.9078 10.4936 9.7028 10.2886 9.62943 10.0536C9.56493 9.84699 9.5692 9.62504 9.6416 9.42107C9.72395 9.18906 9.93667 8.9921 10.3621 8.59817L17.264 2.20765Z" fill="#801ED7"/>
<path d="M8.76212 12.1763C8.35165 11.7659 8.14641 11.5606 7.9013 11.4888C7.7037 11.4308 7.43858 11.4436 7.24747 11.5203C7.01041 11.6154 6.86226 11.7953 6.56595 12.1551C6.46827 12.2737 6.37864 12.398 6.30066 12.53C6.03001 12.9883 5.8908 13.5013 5.88405 14.0163C4.608 13.9077 3.29445 14.3416 2.31799 15.318C1.28682 16.3492 1.34471 17.8002 1.38417 18.7893L1.38921 18.9154C1.43381 20.027 1.46675 20.848 1.11009 21.5439C0.951191 21.8539 0.965076 22.2242 1.14673 22.5215C1.32839 22.8187 1.65165 23 2 23C2.27235 23 2.58299 23.0081 2.91511 23.0167C3.66655 23.0362 4.52805 23.0586 5.30424 22.9968C6.44876 22.9057 7.7418 22.6221 8.68195 21.682C9.65838 20.7056 10.0923 19.3921 9.98366 18.1161C10.4987 18.1093 11.0118 17.9701 11.4701 17.6994C11.6021 17.6215 11.7264 17.5318 11.845 17.4341C12.2048 17.1378 12.3847 16.9897 12.4798 16.7526C12.5565 16.5615 12.5693 16.2964 12.5113 16.0988C12.4395 15.8537 12.2342 15.6484 11.8238 15.238L8.76212 12.1763Z" fill="#801ED7"/>
</svg>
